Sources/FrostedUI/Resources/Icons.xcassets/hashtagFilled32.imageset/hashtag-filled-32.svg

<svg width="32" height="32" viewBox="0 0 32 32" fill="none" xmlns="http://www.w3.org/2000/svg" data-fui-icon="true">
  <path
    d="M24.4102 3.36572C24.6248 2.56613 25.4473 2.09121 26.2471 2.30518C27.0472 2.51956 27.5218 3.34296 27.3076 4.14307L25.9385 9.25244H29.9902C30.8186 9.25246 31.4902 9.92403 31.4902 10.7524C31.4901 11.5808 30.8186 12.2524 29.9902 12.2524H25.1348L22.9102 20.5562H27.2988C28.1272 20.5562 28.7988 21.2277 28.7988 22.0562C28.7987 22.8845 28.1272 23.5561 27.2988 23.5562H22.1064L20.6738 28.9028C20.4594 29.703 19.6361 30.1778 18.8359 29.9634C18.0362 29.7487 17.561 28.9264 17.7754 28.1265L19 23.5562H9.18848L7.75586 28.9028C7.54147 29.7029 6.71808 30.1776 5.91797 29.9634C5.11809 29.7487 4.64306 28.9265 4.85742 28.1265L6.08203 23.5562H2C1.17164 23.5561 0.500104 22.8845 0.5 22.0562C0.5 21.2277 1.17158 20.5562 2 20.5562H6.88574L9.11133 12.2524H4.69141C3.86305 12.2524 3.19152 11.5808 3.19141 10.7524C3.19141 9.92401 3.86298 9.25244 4.69141 9.25244H9.91504L11.4922 3.36572C11.7069 2.56615 12.5293 2.0911 13.3291 2.30518C14.129 2.51967 14.6038 3.34309 14.3896 4.14307L13.0205 9.25244H22.833L24.4102 3.36572ZM9.99219 20.5562H19.8037L22.0293 12.2524H12.2168L9.99219 20.5562Z"
    fill="currentColor"
  />
</svg>

<svg xmlns="http://www.w3.org/2000/svg" width="32" height="32" fill="none" data-fui-icon="true" viewBox="0 0 32 32"><path fill="currentColor" d="M24.41 3.366a1.5 1.5 0 0 1 2.898.777l-1.37 5.11h4.052a1.5 1.5 0 0 1 0 3h-4.855l-2.225 8.303H27.3a1.5 1.5 0 1 1 0 3h-5.193l-1.432 5.347a1.5 1.5 0 0 1-2.899-.776L19 23.557H9.188l-1.432 5.346a1.501 1.501 0 0 1-2.899-.776l1.225-4.57H2a1.5 1.5 0 0 1 0-3h4.886l2.225-8.305h-4.42a1.5 1.5 0 0 1 0-3h5.224l1.577-5.886a1.5 1.5 0 0 1 2.898.777l-1.37 5.11h9.813zM9.992 20.556h9.812l2.225-8.304h-9.812z"/></svg>
